X:237
T:Miss Blands Allemand. VWMLa.237
%%VWML:Anon2-3049-p156-0
F:http://www.vwml.org/record/Anon2/3049/p156
S:Anon. MS, late 18thC, Vaughan Williams Mem. Library
O:England;Yorkshire
Z:vmp/efdss.Simon Wilson. Reviewed PJH 2008.
M:2/4
L:1/16
Q:1/4=100
K:Bb
F2|B2FF c2FF|d2de c2Bc|defg fedc|B2B2 B2:|\
|:f2|f3e d2e2|d3c B2F2|GBAc BdcA|B2B2 B2:|
|:DEFG FEDC|B,CDE FGAB|ABcd cBAG|F2F2 F2z2:|\
|:e3dc2c2|f3e d2F2|GBeg fedc|B2B2 B2z2:|
